X:288
T:Steirer (86.)
C:traditionell
A:Salzkammergut
S:MIDI erhalten von Christian Amon. Nach einer kopie im besitz von Johann Stoeckl eines manuscriptes. Stoeckl(zitiert von Amon): "diese sammlung wurde 1935 im hause der familie Hohenlohe-Schillingfuerst gefunden. Sie wurde von einem der beiden brueder Steinegger 1866 verfasst. Die originale sind im Ausseer Kammerhofmuseum".
M:3/4
L:1/8
K:G
V:1
ed ed BG | FD FD F2 | ed ed cF | GD GD G2 |\
ed ed BG | FD FD F2 | ed ed cF | G4 z2 |*
V:2
gf gf dB | AF AF A2 | gf gf eA | BG BG B2 |\
gf gf dB | AF AF A2 | gf gf eA | B4 z2 |*
